packages/calcite-ui-icons/icons/integer-set-16.svg

<?xml version="1.0" encoding="UTF-8"?><svg id="icons" xmlns="http://www.w3.org/2000/svg" viewBox="0 0 16 16"><defs><style>.cls-1{fill:none;}</style></defs><path d="M10,11v4h1v1h-2v-6h2v1h-1ZM14,15v1h2v-6h-2v1h1v4h-1ZM10,9v-5c0-.55176-.44824-1-1-1h-2c-.55176,0-1,.44824-1,1v5h1v-5h2v5h1ZM1,8v1h4v-1h-1V3H1v1h2v4H1ZM3,2h1V0h-1v2ZM12,0v3h-1v1h1v4c0,.55176.44824,1,1,1h2v-1h-2v-4h2v-1h-2V0h-1Z"/><rect class="cls-1" width="16" height="16"/></svg>

<svg xmlns="http://www.w3.org/2000/svg" viewBox="0 0 16 16"><path d="M10 11v4h1v1H9v-6h2v1zm4 4v1h2v-6h-2v1h1v4zm-4-6V4a1 1 0 0 0-1-1H7a1 1 0 0 0-1 1v5h1V4h2v5zM1 8v1h4V8H4V3H1v1h2v4zm2-6h1V0H3zm9-2v3h-1v1h1v4a1 1 0 0 0 1 1h2V8h-2V4h2V3h-2V0z"/><path d="M0 0h16v16H0z" style="fill:none"/></svg>
